src/assets/icons/letters,simple,serif-e.svg

<svg width="48" height="48" viewBox="0 0 48 48" fill="none" xmlns="http://www.w3.org/2000/svg">
<rect opacity="0.2" x="5" y="5" width="38" height="38" rx="4" fill="black"/>
<path d="M21.1549 23.22C22.4349 23.22 23.4649 23.18 24.2449 23.1C25.0249 23.02 25.6249 22.86 26.0449 22.62C26.4849 22.36 26.7949 21.99 26.9749 21.51C27.1549 21.03 27.2949 20.38 27.3949 19.56H28.5049V28.35H27.3949C27.2749 27.55 27.1149 26.91 26.9149 26.43C26.7149 25.95 26.3949 25.59 25.9549 25.35C25.5149 25.09 24.9149 24.93 24.1549 24.87C23.4149 24.79 22.4149 24.75 21.1549 24.75V30.93C21.1549 31.57 21.2349 32.11 21.3949 32.55C21.5749 32.99 21.8649 33.35 22.2649 33.63C22.6649 33.89 23.1949 34.08 23.8549 34.2C24.5149 34.3 25.3249 34.35 26.2849 34.35C27.4249 34.35 28.3849 34.27 29.1649 34.11C29.9649 33.95 30.6249 33.67 31.1449 33.27C31.6649 32.87 32.0849 32.34 32.4049 31.68C32.7249 31 32.9949 30.15 33.2149 29.13H34.4149L33.9349 36H13.5949V34.8C14.2549 34.78 14.7949 34.72 15.2149 34.62C15.6349 34.52 15.9549 34.35 16.1749 34.11C16.3949 33.87 16.5449 33.53 16.6249 33.09C16.7049 32.65 16.7449 32.08 16.7449 31.38V17.52C16.7449 16.82 16.7049 16.26 16.6249 15.84C16.5649 15.4 16.4349 15.06 16.2349 14.82C16.0349 14.56 15.7449 14.39 15.3649 14.31C15.0049 14.21 14.5249 14.14 13.9249 14.1V12.9H32.8849L33.0949 18.78H31.8049C31.6849 17.94 31.4949 17.25 31.2349 16.71C30.9749 16.15 30.6149 15.71 30.1549 15.39C29.6949 15.05 29.0949 14.82 28.3549 14.7C27.6349 14.56 26.7449 14.49 25.6849 14.49H22.2949C21.7749 14.49 21.4549 14.56 21.3349 14.7C21.2149 14.82 21.1549 15.12 21.1549 15.6V23.22Z" fill="black"/>
</svg>

<svg xmlns="http://www.w3.org/2000/svg" width="48" height="48" fill="none" viewBox="0 0 48 48">
  <rect width="38" height="38" x="5" y="5" fill="#000" opacity=".2" rx="4"/>
  <path fill="#000" d="M21.155 23.22c1.28 0 2.31-.04 3.09-.12.78-.08 1.38-.24 1.8-.48.44-.26.75-.63.93-1.11.18-.48.32-1.13.42-1.95h1.11v8.79h-1.11c-.12-.8-.28-1.44-.48-1.92-.2-.48-.52-.84-.96-1.08-.44-.26-1.04-.42-1.8-.48-.74-.08-1.74-.12-3-.12v6.18c0 .64.08 1.18.24 1.62.18.44.47.8.87 1.08.4.26.93.45 1.59.57.66.1 1.47.15 2.43.15 1.14 0 2.1-.08 2.88-.24.8-.16 1.46-.44 1.98-.84.52-.4.94-.93 1.26-1.59.32-.68.59-1.53.81-2.55h1.2l-.48 6.87h-20.34v-1.2c.66-.02 1.2-.08 1.62-.18.42-.1.74-.27.96-.51.22-.24.37-.58.45-1.02.08-.44.12-1.01.12-1.71V17.52c0-.7-.04-1.26-.12-1.68-.06-.44-.19-.78-.39-1.02-.2-.26-.49-.43-.87-.51-.36-.1-.84-.17-1.44-.21v-1.2h18.96l.21 5.88h-1.29c-.12-.84-.31-1.53-.57-2.07-.26-.56-.62-1-1.08-1.32-.46-.34-1.06-.57-1.8-.69-.72-.14-1.61-.21-2.67-.21h-3.39c-.52 0-.84.07-.96.21-.12.12-.18.42-.18.9v7.62z"/>
</svg>
